X: 127102
P: Same figure.
M: 6/8
L: 1/8
K: A
uE |\
vA2vc ecA | vF2vA uE2uE | EFE d2d | (c3 B2) uE |\
ue |\
vf2vd dcd | ecA Ace | f2d dcd | e3 A2 e |\
f2d dcd | ecA Ace | agf edc | c3 "_D.C."B2 |]


